!!!COM: Palestrina, Giovanni Perluigi da
!!!OPR: Missa Ut re mi fa sol la
!!!OMD: Credo
!!!OTL: Et in Spiritum
**kern	**kern	**kern	**kern	**kern	**kern
*Ibass	*Itenor	*Icalto	*Icalto	*Icant	*Icant
!Bassus	!Tenor	!Altus 2	!Altus 1	!Cantus 2	!Cantus 1
*clefF4	*clefGv2	*clefG2	*clefG2	*clefG2	*clefG2
*k[]	*k[]	*k[]	*k[]	*k[]	*k[]
*C:ion	*C:ion	*C:ion	*C:ion	*C:ion	*C:ion
*M4/2	*M4/2	*M4/2	*M4/2	*M4/2	*M4/2
=138	=138	=138	=138	=138	=138
0r	1.c	1g	0r	1.ee	1.cc
.	.	2e	.	.	.
.	2A	[2a	.	2ee	2cc
=139	=139	=139	=139	=139	=139
0r	2e	2a]	0r	2ee	2b
.	2e	2g#	.	2ee	2b
.	1A	1a	.	1ee	1a
=140	=140	=140	=140	=140	=140
0r	1.d	1f#	0r	1.dd	1.a
.	.	2f#	.	.	.
.	2G	[2g	.	2dd	2b
=141	=141	=141	=141	=141	=141
0r	2d	2g]	1r	2dd	2a
.	2d	2f#	.	2dd	2a
.	1G	1g	2r	1dd	1b
.	.	.	[2g	.	.
=142	=142	=142	=142	=142	=142
1.c	0r	1e	2g]	1.cc	0r
.	.	.	2c	.	.
.	.	2e	2g	.	.
2F	.	[2f	2a	2cc	.
=143	=143	=143	=143	=143	=143
2c	0r	2f]	1g	2cc	0r
2c	.	2e	.	2cc	.
1F	.	1f	1a	1cc	.
=144	=144	=144	=144	=144	=144
2G	2r	2d	1.g	2b	2r
1G	1B	1d	.	1b	1dd
2G	2B	2d	2g	2b	2dd
=145	=145	=145	=145	=145	=145
2E	2B	2G	2g	2b	2ee
2E	2B	2G	2g	2b	2ee
2G	2B	2.B	2g	2b	2dd
2G	2G	.	2g	2b	2dd
.	.	4c	.	.	.
=146	=146	=146	=146	=146	=146
1D	2A	1d	1f	1a	2dd
.	1d	.	.	.	1ff
2D	.	2A	2d	2a	.
2A	2c#	2A	2e	2a	[2ee
=147	=147	=147	=147	=147	=147
1D	1d	1A	1f	0a	2ee]
.	.	.	.	.	2dd
1A	2c	1A	1e	.	2ee
.	[2c	.	.	.	[2ee
=148	=148	=148	=148	=148	=148
0r	2c]	2c	0r	[0g	2ee]
.	2B	2d	.	.	2dd
.	1c	1e	.	.	1cc
=149	=149	=149	=149	=149	=149
0r	2G	2d	0r	1g_	2b
.	2B	2d	.	.	2dd
.	2c	2e	.	1g_	2cc
.	2c	2e	.	.	2cc
=150	=150	=150	=150	=150	=150
2r	2G	1d	2r	0g]	1b
1G	1B	.	1d	.	.
.	.	2g	.	.	1r
2G	2B	2g	2e	.	.
=151	=151	=151	=151	=151	=151
2F	2c	2a	2f	0r	0r
2D	1d	2a	2f	.	.
1A	.	1a	1e	.	.
.	2c#	.	.	.	.
=152	=152	=152	=152	=152	=152
0D	2d	2a	2f	0r	2r
.	2d	2f	2a	.	2dd
.	2d	2.a	2f	.	2dd
.	2d	.	2f	.	2ff
.	.	4b	.	.	.
=153	=153	=153	=153	=153	=153
0r	2c	2cc	4g	0r	2ee
.	.	.	4e	.	.
.	2A	2cc	1a	.	2ee
.	1e	1b	.	.	1ee
.	.	.	2g#	.	.
=154	=154	=154	=154	=154	=154
2r	2A	2a	2a	0r	2cc
1F	1A	1a	1cc	.	1ff
2F	2A	2a	2cc	.	2ff
=155	=155	=155	=155	=155	=155
2C	2c	2g	2cc	0r	2ee
2C	2c	2g	2cc	.	2ee
1G	1d	1g	1b	.	[1dd
=156	=156	=156	=156	=156	=156
1D	1d	1f#	1a	0r	2dd]
.	.	.	.	.	2a
1G	1B	1g	1d	.	2b
.	.	.	.	.	[2dd
=157	=157	=157	=157	=157	=157
1C	1c	1e	1g	0r	4dd]
.	.	.	.	.	4cc
.	.	.	.	.	1cc
1G	1d	1d	1g	.	.
.	.	.	.	.	2b
=158	=158	=158	=158	=158	=158
1C	2e	2.c	2r	1g	0cc
.	2c	.	2e	.	.
.	.	4c	.	.	.
1r	2A	2c	2e	2a	.
.	2A	2c	2e	2a	.
=159	=159	=159	=159	=159	=159
0r	1G	1d	1g	1b	0r
.	2c	2e	2g	2cc	.
.	2e	2g	2g	2cc	.
=160	=160	=160	=160	=160	=160
1r	2d	2g	2.a	2dd	1r
.	2d	2f#	.	2dd	.
.	.	.	4b	.	.
2r	2c	2g	1cc	1ee	2r
2c	2e	2c	.	.	2g
=161	=161	=161	=161	=161	=161
2A	2c	2e	0r	0r	2a
2A	2c	2f#	.	.	2a
2.G	2d	2g	.	.	2b
.	2d	2g	.	.	2b
4F	.	.	.	.	.
=162	=162	=162	=162	=162	=162
2E	2e	2g	0r	0r	2cc
2F	2c	2a	.	.	2cc
2D	2c	2f	.	.	2dd
2D	2B	2f	.	.	2dd
=163	=163	=163	=163	=163	=163
1C	2c	2e	2r	2r	1ee
.	2c	2g	2cc	2ee	.
1r	2d	2f#	2a	2dd	1r
.	2B	2g	2b	2dd	.
=164	=164	=164	=164	=164	=164
2r	2c	2e	2g	2cc	0r
2F	2A	2f	2a	2cc	.
2G	2B	2d	2g	2b	.
2E	2G	2e	2g	2b	.
=165	=165	=165	=165	=165	=165
1F	2A	1c	1f	1a	1r
.	2F	.	.	.	.
[1C	2G	2c	2e	1g	2r
.	[2c	[2cc	[2g	.	[2ee
=166	=166	=166	=166	=166	=166
1C]	2c]	2cc]	2g]	0r	2ee]
.	2c	2cc	2g	.	2ee
1r	2d	2a	2f#	.	2dd
.	2e	2g	2g	.	2cc
=167	=167	=167	=167	=167	=167
0r	1d	1f	2a	0r	1ff
.	.	.	2b	.	.
.	1c	2g	1cc	.	2ee
.	.	2a	.	.	2cc
=168	=168	=168	=168	=168	=168
0r	2r	2b	1g	0r	2dd
.	1c	1cc	.	.	1ee
.	.	.	2a	.	.
.	2d	4b	2b	.	[2dd
.	.	4a	.	.	.
=169	=169	=169	=169	=169	=169
0r	2e	2g	1cc	0r	4dd]
.	.	.	.	.	4cc
.	2f	1a	.	.	1cc
.	1d	.	1f	.	.
.	.	4g	.	.	2b
.	.	4f	.	.	.
=170	=170	=170	=170	=170	=170
0C	1c	1e	1g	0g	1cc
.	1c	1e	2r	.	2r
.	.	.	2c	.	2cc
=171	=171	=171	=171	=171	=171
1F	1A	1f	1c	1a	1cc
1A	1c	1e	1A	1a	1cc
=172	=172	=172	=172	=172	=172
2G	1B	2g	2d	2b	2dd
1G	.	1g	1d	1b	1dd
.	2G	.	.	.	.
2G	2B	2g	2G	2b	2dd
=173	=173	=173	=173	=173	=173
2F	2A	2a	2.c	2cc	2ff
2F	2A	2a	.	2cc	2ff
.	.	.	4d	.	.
1C	1c	2g	2e	1cc	1ee
.	.	[2g	2e	.	.
=174	=174	=174	=174	=174	=174
1G	1B	2g]	1g	2dd	2dd
.	.	1d	.	1dd	2g
2D	[1A	.	2.f	.	[1a
2D	.	2f	.	2dd	.
.	.	.	8e	.	.
.	.	.	8d	.	.
=175	=175	=175	=175	=175	=175
1A	2A]	0e	4c	0ee	1a]
.	.	.	4A	.	.
.	2c	.	1a	.	.
1E	1B	.	.	.	1b
.	.	.	2g#	.	.
=176	=176	=176	=176	=176	=176
0A	1A	1e	1a	0ee	1cc
.	1c	2r	2r	.	1ee
.	.	2e	[2cc	.	.
=177	=177	=177	=177	=177	=177
0r	1G	1g	2cc]	0r	1dd
.	.	.	2b	.	.
.	2A	2e	2a	.	2cc
.	2c	2e	2g	.	2cc
=178	=178	=178	=178	=178	=178
0r	2G	2d	2g	0r	2b
.	2G	2g	2d	.	2b
.	2d	2g	1r	.	2a
.	2d	2f#	.	.	2a
=179	=179	=179	=179	=179	=179
1C	2G	2g	2r	1ee	2g
.	2c	2c	2g	.	2gg
1G	1B	1d	1g	1dd	1gg
=180	=180	=180	=180	=180	=180
2C	2c	2e	2g	2cc	1ee
2C	2G	2e	2g	2cc	.
2G	2G	2d	2g	2b	1r
2E	2G	2e	2g	2b	.
=181	=181	=181	=181	=181	=181
1F	4A	2c	1f	2a	1r
.	4B	.	.	.	.
.	1c	2A	.	2a	.
1G	.	4B-	1d	[1g	2r
.	.	4G	.	.	.
.	2B	[2g	.	.	2dd
=182	=182	=182	=182	=182	=182
2C	1c	4g]	1c	0g]	2.ee
.	.	4f	.	.	.
1c	.	1e	.	.	.
.	.	.	.	.	4ff
.	1G	.	2r	.	2gg
2B	.	2d	[2g	.	2g
=183	=183	=183	=183	=183	=183
1A	2r	1c	2g]	1r	4a
.	.	.	.	.	4b
.	1c	.	2f	.	4cc
.	.	.	.	.	4dd
1G	.	2r	2e	1g	4ee
.	.	.	.	.	4ff
.	2B	[2g	2d	.	2gg
=184	=184	=184	=184	=184	=184
1r	1A	2g]	2e	1a	1cc
.	.	2f	2c	.	.
2r	1G	2e	1g	1b	2r
2G	.	[2d	.	.	2g
=185	=185	=185	=185	=185	=185
2F	2r	4d]	1c	1cc	2a
.	.	4c	.	.	.
2E	2G	1c	.	.	2g
1D	2A	.	1r	1dd	1f
.	2B	2B	.	.	.
=186	=186	=186	=186	=186	=186
1C	1c	4A	1e	1ee	2r
.	.	4G	.	.	.
.	.	2c	.	.	1cc
2r	1G	1d	2.g	1dd	.
2G	.	.	.	.	2b
.	.	.	4f	.	.
=187	=187	=187	=187	=187	=187
2A	2r	1r	2e	1cc	1a
2F	2A	.	2f	.	.
1G	2B	1g	[1d	1b	4g
.	.	.	.	.	4a
.	2G	.	.	.	4b
.	.	.	.	.	4cc
=188	=188	=188	=188	=188	=188
2.D	2.A	0f	1d]	0a	4dd
.	.	.	.	.	4ee
.	.	.	.	.	2.ff
4E	4G	.	.	.	.
1F	4A	.	2.c	.	.
.	4B	.	.	.	4ee
.	[2c	.	.	.	[2cc
.	.	.	4d	.	.
=189	=189	=189	=189	=189	=189
0C	2c]	0e	4e	[0g	4cc]
.	.	.	4f	.	4dd
.	4B	.	2g	.	2.ee
.	4A	.	.	.	.
.	[1G	.	1c	.	.
.	.	.	.	.	4dd
.	.	.	.	.	[2cc
=190	=190	=190	=190	=190	=190
0G	0G]	0d	2d	0g]	2cc]
.	.	.	2.g	.	4b
.	.	.	.	.	4a
.	.	.	.	.	1b
.	.	.	4f	.	.
.	.	.	2d	.	.
=191	=191	=191	=191	=191	=191
[0C	[0G	[0c	[0e	[0g	[0cc
=192	=192	=192	=192	=192	=192
0C]	0G]	0c]	0e]	0g]	0cc]
==	==	==	==	==	==
*-	*-	*-	*-	*-	*-
!!!CDT: 1525/^1526/-1594/2/2
!!!OCY: Italia
!!!AGN: Mass (Tenor)
!!!AST: renaissance, vocal
!!!ASW: Antiphon
!!!PWK: Masses, Book 3
!!!RNB: Cadence finals: G
!!!YOR: Le Opere Complete, v. 6, p. 216
!!!YOO: Rome, Italy: Fratelli Scalera
!!!END: 1992//
!!!EED: John Miller
!!!YEC: Copyright 2000, John Miller
!!!YEN: United States of America
!!!YEM: Rights to all derivative electronic formats reserved.
!!!YEM: Refer to licensing agreement for further details.
!!!YEM: This file must be accompanied by the licensing agreement.
!!!YEM: A copy of the licensing agreement may be found at http://www.music-cog.ohio-state.edu/HumdrumDatabases/Palestrina/license.txt
!!!EMD: converted to Humdrum by Bret Aarden
